X: 4373
T: Earl of Kinnoull's Reel
C: byCap.tn D.l Menzies
%R: reel
B: Niel Gow & Sons "Complete Repository" v.4 p.37 #3
Z: 2021 John Chambers <jc:trillian.mit.edu>
M: C|
L: 1/8
K: D
% - - - - - - - - - -
V: 1 staves=2
c |\
~d2AG TF2D=F | {F}E2=CE cGEg |\
fdAG {G}TF2DF | GECE FDD :|\
A |\
~d2fa Tf2df | {f}e2=ce gece |
~d2fa Tf2df | gece fddA |\
~d2fa Tf2df | e=ceg c'geg |\
fdAG FdAF | GEcE dDD |]
% - - - - - - - - - -
% Voice 2 preserves the book's staff layout.
V: 2 clef=bass middle=d
z | d2c2 d2B2 | =c2c2 c2^c2 | d2c2 d2B2 | G2A2 D2d :| z | d'2d'2 d'2d'2 | =c'2c'2 c'2c'2 |
d'2d'2 f2f2 | g2a2 d2dz | d'2d'2 d'2d'2 | =c'2c'2 c'2c'2 | d'2c'2 d'2f2 | g2a2 d2d |]


